svg/noodles.svg

<svg xmlns="http://www.w3.org/2000/svg" viewBox="0 0 24 24"><path d="M22 3 10 4.41V6h12v1H10v5h12c0 1.81-.57 3.46-1.68 4.95s-2.55 2.58-4.32 3.3V22H8v-1.75c-1.76-.72-3.21-1.82-4.32-3.3S2 13.81 2 12h3V4l17-2zM6 4.88V6h1V4.78zM6 7v5h1V7zm3 5V7H8v5zm0-6V4.55l-1 .09V6z"/></svg>

<?xml version="1.0" encoding="UTF-8"?><!DOCTYPE svg PUBLIC "-//W3C//DTD SVG 1.1//EN" "http://www.w3.org/Graphics/SVG/1.1/DTD/svg11.dtd"><svg xmlns="http://www.w3.org/2000/svg" xmlns:xlink="http://www.w3.org/1999/xlink" version="1.1" id="mdi-noodles" width="24" height="24" viewBox="0 0 24 24"><path d="M22 3L10 4.41V6H22V7H10V12H22C22 13.81 21.43 15.46 20.32 16.95S17.77 19.53 16 20.25V22H8V20.25C6.24 19.53 4.79 18.43 3.68 16.95S2 13.81 2 12H5V4L22 2V3M6 4.88V6H7V4.78L6 4.88M6 7V12H7V7H6M9 12V7H8V12H9M9 6V4.55L8 4.64V6H9Z" /></svg>
